X: 34220
T: Reel St-Michel
R: reel
M: 4/4
K: Gmajor
|:g~G3 f~G3|e~G3 dBAG|FGAF DFAF|GdBG d~G3|
g~G3 f~G3|e~G3 dBAG|FGAF DFAF|1 GBAF G2e2:|2 GBAF GBAG||
K:Dmaj
|:FAdf a2AG|FAdf a2A2|eA c/B/A eA c/B/A|eA c/B/A B2AG|
FAdf a2AG|FAdf a2A2|eA c/B/A eABc|1 dfec dBAG:|2 dfec d2e2||

